static/sponsor/wongnai.svg

<?xml version="1.0" encoding="UTF-8"?>
<svg width="500px" height="300px" viewBox="0 0 500 300" version="1.1" xmlns="http://www.w3.org/2000/svg" xmlns:xlink="http://www.w3.org/1999/xlink">
    <!-- Generator: Sketch 43.1 (39012) - http://www.bohemiancoding.com/sketch -->
    <title>Rectangle Copy 11</title>
    <desc>Created with Sketch.</desc>
    <defs>
        <path d="M127.465666,23.3822982 C155.158881,52.1036763 154.235496,98.1182329 125.465139,125.78551 C101.828664,148.515285 66.5746705,152.406908 38.9521019,137.473534 L38.9163634,137.454623 C37.4918085,136.688303 35.8578091,136.387366 34.2495747,136.595391 L16.5432049,138.88284 C11.9362575,138.88284 8.20116428,135.18773 8.20116428,130.629277 L10.4900932,113.489856 C10.6405276,112.361754 10.6180871,111.205696 10.3047515,110.110483 C10.1418502,109.540677 9.91661431,108.988959 9.62821258,108.46602 C-5.6321449,80.8439656 -1.45073547,45.5085552 22.1865701,22.1234614 C51.333429,-6.71138462 98.853223,-6.29204641 127.465666,23.3822982 Z M120.10361,51.5026248 L119.9939,51.5009804 C117.483891,51.5009804 115.857372,53.2219115 115.750156,55.9920103 C115.730209,56.523172 115.744338,93.0146403 115.765948,96.2287443 C115.784233,98.927309 117.353404,100.634262 119.86092,100.683596 L119.97146,100.684418 C122.481469,100.684418 124.107157,98.9634872 124.214373,96.1942106 C124.23432,95.6614044 124.220191,59.1707583 124.19775,55.9566543 C124.179466,53.2580897 122.610294,51.5511365 120.10361,51.5026248 Z M119.827592,46.4013345 L119.95891,46.4021567 C122.950974,46.4021567 124.889167,44.3473995 125.017991,40.9672047 C124.995551,37.7473451 123.125511,35.710677 120.136772,35.6514763 L120.006284,35.6506541 C117.012558,35.6506541 115.074366,37.7054113 114.947203,41.0856061 C114.968812,44.3062879 116.838852,46.3421338 119.827592,46.4013345 Z M39.3959248,50.3743584 C39.384289,50.3743584 39.3734843,50.3760029 39.3618485,50.3760029 L38.359507,50.3760029 C38.3478712,50.3760029 38.3370666,50.3743584 38.3254308,50.3743584 C26.3496946,50.3743584 16.9022526,59.3317513 16.9022526,70.6974611 L16.9022526,96.2252909 C16.9022526,99.020879 19.0473962,100.464718 21.1875531,100.464718 C23.3285411,100.464718 25.3739493,99.020879 25.3739493,96.2252909 L25.3739493,70.4072133 C25.3739493,63.9559828 30.6349952,58.465119 38.3254308,58.465119 C38.3370666,58.465119 38.3487024,58.4667635 38.359507,58.4667635 L39.3618485,58.4667635 C39.3726532,58.4667635 39.384289,58.465119 39.3959248,58.465119 C47.0863604,58.465119 52.3474062,63.9559828 52.3474062,70.4072133 L52.3474062,96.2252909 C52.3474062,99.020879 54.3928144,100.464718 56.5338024,100.464718 C58.6739593,100.464718 60.8191029,99.020879 60.8191029,96.2252909 L60.8191029,70.6974611 C60.8191029,59.3317513 51.3716609,50.3743584 39.3959248,50.3743584 Z M98.3744928,80.9818539 C98.3744928,86.9866125 92.2424239,92.2538293 85.2534611,92.2538293 C78.7615133,92.2538293 76.4484816,89.0783701 76.4484816,86.1068245 C76.4484816,83.6697296 78.2279286,80.6241831 83.2437914,80.0601321 L98.3744928,78.2520444 L98.3744928,80.9818539 Z M87.9396696,51.5015559 C82.2148539,51.5015559 77.7749633,52.6658361 74.3673349,55.0618195 C70.9796536,57.443825 69.2675281,61.2565137 69.1993755,61.4119155 C67.9792783,64.0471683 68.7231386,66.4135514 71.1417237,67.5860539 C71.8515078,67.930569 72.5646164,68.1057043 73.2602712,68.1057043 C74.9732279,68.1057043 76.4567929,67.0631145 77.4425118,65.1637591 C77.4508231,65.1473144 78.2977434,63.4559837 79.552748,62.2037247 C81.4709935,60.2953247 84.0674401,59.5166713 88.5148108,59.5166713 C94.4116703,59.5166713 98.3744928,61.9496551 98.3744928,65.5691193 L98.3744928,68.4535084 C98.3744928,70.1020831 97.299012,71.1570064 95.4896444,71.2762301 L81.7677065,72.5103999 C78.3949855,72.8022922 67.3858523,74.6440914 67.3858523,86.1068245 C67.3858523,94.6695462 74.181162,100.65046 83.9095257,100.65046 C90.1936912,100.65046 95.4198296,98.9361069 98.4459699,95.9185163 C98.7933817,98.2594101 100.388318,99.7007824 102.772827,99.7484719 L102.890847,99.7492941 C105.587029,99.7492941 107.333231,97.9009171 107.448758,94.9104601 L107.448758,68.796379 C107.448758,57.4816476 100.702485,51.5015559 87.9396696,51.5015559 Z" id="path-1"></path>
        <polygon id="path-3" points="0 0.359331302 0 49.8075225 68.8999685 49.8075225 68.8999685 0.359331302 2.80300232e-20 0.359331302"></polygon>
    </defs>
    <g id="Page-1" stroke="none" stroke-width="1" fill="none" fill-rule="evenodd">
        <g id="Group-18">
            <rect id="Rectangle-Copy-11" fill-opacity="0" fill="#D8D8D8" x="0" y="0" width="500" height="300"></rect>
            <g id="Page-1" transform="translate(56.000000, 77.000000)">
                <g id="Group-3" transform="translate(241.000000, 0.000000)">
                    <mask id="mask-2" fill="white">
                        <use xlink:href="#path-1"></use>
                    </mask>
                    <use id="Combined-Shape" fill="#FFFFFF" xlink:href="#path-1"></use>
                </g>
                <g id="Group-12" transform="translate(0.000000, 51.000000)">
                    <mask id="mask-4" fill="white">
                        <use xlink:href="#path-3"></use>
                    </mask>
                    <g id="Clip-11"></g>
                    <path d="M22.7213881,46.4128265 C21.8494136,48.6431302 20.9774391,49.8075225 18.8463136,49.8075225 C16.711879,49.8075225 15.6463162,48.6431302 14.8727905,46.5113074 L0.331333755,6.17798258 C-0.634952951,3.5603757 0.623370748,1.6180667 2.66018399,0.745806931 C4.59689391,-0.0279718977 7.11850511,0.264160644 8.08561912,2.97611061 L18.6527254,33.6152695 L30.5741222,3.5603757 C31.4460966,1.42524267 32.8980086,0.359331302 34.4491966,0.359331302 C35.9995573,0.359331302 37.4556057,1.42524267 38.3275802,3.5603757 L50.248977,33.6152695 L60.812774,2.97611061 C61.7831973,0.264160644 64.3048085,-0.0279718977 66.2423457,0.745806931 C68.2783316,1.6180667 69.5366553,3.5603757 68.5662321,6.17798258 L54.0289119,46.5113074 C53.2520769,48.6431302 52.1865142,49.8075225 50.0553887,49.8075225 C48.505028,49.8075225 47.0489796,48.6431302 46.1761778,46.4128265 L34.4491966,16.4522758 L22.7213881,46.4128265 Z" id="Fill-10" fill="#FFFFFF" mask="url(#mask-4)"></path>
                </g>
                <path d="M113.608162,76.5 C113.608162,66.682578 107.627753,59.0827616 97.4995884,59.0827616 C87.3722466,59.0827616 81.3918376,66.682578 81.3918376,76.5 C81.3918376,86.3133153 87.3722466,94.011692 97.4995884,94.011692 C107.627753,94.011692 113.608162,86.3133153 113.608162,76.5 M73,76.5 C73,62.9298966 81.9689668,51 97.4995884,51 C113.026917,51 122,62.9298966 122,76.5 C122,90.1604503 113.026917,102 97.4995884,102 C81.9689668,102 73,90.1604503 73,76.5" id="Fill-13" fill="#FFFFFF"></path>
                <path d="M154.53626,51 C154.524603,51 154.513777,51.0016415 154.50212,51.0016415 L153.49788,51.0016415 C153.486223,51.0016415 153.475397,51 153.46374,51 C141.465329,51 132,59.9412344 132,71.2864412 L132,96.7682206 C132,99.5587656 134.149205,101 136.293414,101 C138.438456,101 140.487737,99.5587656 140.487737,96.7682206 L140.487737,70.996717 C140.487737,64.5571241 145.758743,59.0761655 153.46374,59.0761655 C153.475397,59.0761655 153.487055,59.077807 153.49788,59.077807 L154.50212,59.077807 C154.512945,59.077807 154.524603,59.0761655 154.53626,59.0761655 C162.241257,59.0761655 167.512263,64.5571241 167.512263,70.996717 L167.512263,96.7682206 C167.512263,99.5587656 169.561544,101 171.706586,101 C173.850795,101 176,99.5587656 176,96.7682206 L176,71.2864412 C176,59.9412344 166.534671,51 154.53626,51" id="Fill-15" fill="#FFFFFF"></path>
                <path d="M223.596867,76.8094909 C223.596867,66.8729159 218.673537,59.1808613 208.532564,59.1808613 C198.391591,59.1808613 192.403133,66.8729159 192.403133,76.8094909 C192.403133,86.7419094 198.391591,94.5337205 208.532564,94.5337205 C218.673537,94.5337205 223.596867,86.7419094 223.596867,76.8094909 M232,74.6738713 L232,96.3858655 C232,110.116511 223.309975,122 207.757626,122 C199.645507,122 193.366035,119.855236 188.828524,114.597239 C186.991756,112.452475 187.66859,110.116511 189.312448,108.752342 C190.857378,107.293403 193.272053,107.194478 195.202803,109.141392 C197.616653,111.57545 201.191261,114.010339 207.757626,114.010339 C217.706513,114.010339 223.596867,106.512809 223.596867,96.868853 L223.596867,96.5795593 C219.637263,100.378618 214.324815,102.618982 207.757626,102.618982 C192.690025,102.618982 184,90.6357367 184,76.8094909 C184,63.0746886 192.690025,51 207.757626,51 C223.399011,51 232,63.3722953 232,74.6738713" id="Fill-17" fill="#FFFFFF"></path>
            </g>
        </g>
    </g>
</svg>

<svg width="500" height="300" viewBox="0 0 500 300" xmlns="http://www.w3.org/2000/svg" xmlns:xlink="http://www.w3.org/1999/xlink"><title>Rectangle Copy 11</title><defs><path d="M127.466 23.382c27.693 28.722 26.77 74.736-2 102.404-23.637 22.73-58.891 26.62-86.514 11.688l-.036-.02a7.756 7.756 0 0 0-4.666-.859l-17.707 2.288c-4.607 0-8.342-3.695-8.342-8.254l2.29-17.14c.15-1.127.127-2.283-.186-3.379a7.897 7.897 0 0 0-.677-1.644C-5.632 80.844-1.45 45.509 22.187 22.123 51.333-6.71 98.853-6.292 127.466 23.383zm-7.362 28.12l-.11-.001c-2.51 0-4.137 1.72-4.244 4.491-.02.531-.006 37.023.016 40.237.018 2.698 1.587 4.405 4.095 4.455h.11c2.51 0 4.136-1.72 4.243-4.49.02-.533.006-37.023-.016-40.237-.019-2.699-1.588-4.406-4.094-4.454zm-.276-5.1h.13c2.993 0 4.931-2.055 5.06-5.435-.022-3.22-1.892-5.256-4.881-5.316h-.13c-2.994 0-4.933 2.054-5.06 5.435.022 3.22 1.892 5.256 4.88 5.315zm-80.432 3.972l-.034.002H38.36l-.035-.002c-11.975 0-21.423 8.958-21.423 20.323v25.528c0 2.796 2.145 4.24 4.286 4.24 2.14 0 4.186-1.444 4.186-4.24V70.407c0-6.451 5.261-11.942 12.951-11.942l.035.002h1.002l.034-.002c7.69 0 12.951 5.491 12.951 11.942v25.818c0 2.796 2.046 4.24 4.187 4.24 2.14 0 4.285-1.444 4.285-4.24V70.697c0-11.365-9.447-20.323-21.423-20.323zm58.978 30.608c0 6.005-6.132 11.272-13.12 11.272-6.492 0-8.806-3.176-8.806-6.147 0-2.437 1.78-5.483 6.796-6.047l15.13-1.808v2.73zM87.94 51.502c-5.725 0-10.165 1.164-13.573 3.56-3.387 2.382-5.1 6.195-5.168 6.35-1.22 2.635-.476 5.002 1.943 6.174.71.345 1.423.52 2.118.52 1.713 0 3.197-1.043 4.183-2.942.008-.017.855-1.708 2.11-2.96 1.918-1.909 4.514-2.687 8.962-2.687 5.897 0 9.86 2.433 9.86 6.052v2.885c0 1.648-1.076 2.703-2.885 2.822L81.768 72.51c-3.373.292-14.382 2.134-14.382 13.597 0 8.563 6.795 14.543 16.524 14.543 6.284 0 11.51-1.714 14.536-4.731.347 2.34 1.942 3.782 4.327 3.83h.118c2.696 0 4.442-1.848 4.558-4.839V68.796c0-11.314-6.747-17.294-19.51-17.294z" id="a"/><path id="b" d="M0 .36v49.448h68.9V.359H0z"/></defs><g fill="none" fill-rule="evenodd"><path fill="none" d="M0 0h500v300H0z"/><use fill="#FFF" xlink:href="#a" transform="translate(297 77)"/><g transform="translate(56 128)"><mask id="c" fill="#fff"><use xlink:href="#b"/></mask><path d="M22.721 46.413c-.872 2.23-1.744 3.395-3.875 3.395-2.134 0-3.2-1.165-3.973-3.297L.33 6.178C-.635 3.56.623 1.618 2.661.746c1.936-.774 4.458-.482 5.425 2.23l10.567 30.64L30.574 3.56c.872-2.135 2.324-3.2 3.875-3.2 1.55 0 3.007 1.065 3.879 3.2l11.921 30.055L60.813 2.976c.97-2.712 3.492-3.004 5.43-2.23 2.035.872 3.294 2.814 2.323 5.432L54.03 46.511c-.777 2.132-1.842 3.297-3.974 3.297-1.55 0-3.006-1.165-3.879-3.395L34.45 16.453l-11.728 29.96z" fill="#FFF" mask="url(#c)"/></g><path d="M169.608 153.5c0-9.817-5.98-17.417-16.108-17.417s-16.108 7.6-16.108 17.417c0 9.813 5.98 17.512 16.108 17.512s16.108-7.699 16.108-17.512m-40.608 0c0-13.57 8.969-25.5 24.5-25.5 15.527 0 24.5 11.93 24.5 25.5 0 13.66-8.973 25.5-24.5 25.5-15.531 0-24.5-11.84-24.5-25.5M210.536 128l-.034.002h-1.004l-.034-.002C197.465 128 188 136.941 188 148.286v25.482c0 2.79 2.15 4.232 4.293 4.232 2.145 0 4.195-1.441 4.195-4.232v-25.771c0-6.44 5.27-11.92 12.976-11.92h1.072c7.705 0 12.976 5.48 12.976 11.92v25.771c0 2.79 2.05 4.232 4.195 4.232 2.144 0 4.293-1.441 4.293-4.232v-25.482c0-11.345-9.465-20.286-21.464-20.286M279.597 153.81c0-9.937-4.923-17.63-15.064-17.63s-16.13 7.693-16.13 17.63c0 9.932 5.989 17.724 16.13 17.724 10.14 0 15.064-7.792 15.064-17.725m8.403-2.135v21.712c0 13.73-8.69 25.614-24.242 25.614-8.112 0-14.392-2.145-18.93-7.403-1.836-2.145-1.16-4.48.484-5.845 1.545-1.459 3.96-1.558 5.89.39 2.415 2.433 5.99 4.868 12.556 4.868 9.949 0 15.839-7.497 15.839-17.141v-.29c-3.96 3.8-9.272 6.04-15.84 6.04-15.067 0-23.757-11.983-23.757-25.81 0-13.734 8.69-25.809 23.758-25.809C279.399 128 288 140.372 288 151.674" fill="#FFF"/></g></svg>
